app/assets/icons/polaris/ColumnWithTextMajor.svg

<svg viewBox="0 0 20 20" xmlns="http://www.w3.org/2000/svg"><path d="M9 7v-6h-6.5a1.5 1.5 0 0 0-1.5 1.5v4.5h8zm10-4.5a1.5 1.5 0 0 0-1.5-1.5h-6.5v6h8v-4.5zm-18 6.5h8v2h-8v-2zm18 0h-8v2h8v-2zm-18 4h8v2h-8v-2zm18 0h-8v2h8v-2zm-18 4h4v2h-4v-2zm14 0h-4v2h4v-2z"/></svg>

<svg viewBox="0 0 20 20" xmlns="http://www.w3.org/2000/svg"><path d="M9 7V1H2.5A1.5 1.5 0 0 0 1 2.5V7h8zm10-4.5A1.5 1.5 0 0 0 17.5 1H11v6h8V2.5zM1 9h8v2H1V9zm18 0h-8v2h8V9zM1 13h8v2H1v-2zm18 0h-8v2h8v-2zM1 17h4v2H1v-2zm14 0h-4v2h4v-2z"/></svg>
